!!!!SEGMENT: pl-wtm--r-1006-3_krogulski-jozef-wladyslaw--graduale.krn
!!!cenid: 18xx:2106
!!!COM: Krogulski, Józef Władysław
!!!COM-rismid: pe30001797
!!!CDT: 1815/10/04-1842/01/09
!!!CNT: Polish
!!!OTL: Graduale
!!!PDT:
!!!AGN: Sacred
!!!SMS-siglum: PL-Wtm
!!!SMS-shelfmark: R 1006/3
!!!SMS-shelfwork: W
!!!SMS-variant: Soprano pl-wtm-r1006-3-0017-0019; Alto pl-wtm-r1006-3-0033-0035; Tenore pl-wtm-r1006-3-0049-51; Basso pl-wtm-r1006-3-0073-0075
!!!SMS-altvar: Soprano pl-wtm-r1006-3-0009-0011; Alto pl-wtm-r1006-3-0025-0027; Tenore pl-wtm-r1006-3-0041-43 oraz pl-wtm-r1006-3-0057-0059; Basso pl-wtm-r1006-3-0065-0067
!!!NIFC-rismid: 1001083921
!!!URL-scan: http://repozytorium.nifc.pl/skany/pl-wtm-nut--r1006
!!!ONB-nifc: UWAGA: folder pl-wtm-r1006-3
**kern	**text	**dynam	**kern	**text	**dynam	**kern	**text	**dynam	**kern	**text	**dynam
*part4	*part4	*part4	*part3	*part3	*part3	*part2	*part2	*part2	*part1	*part1	*part1
*staff4	*staff4	*	*staff3	*staff3	*	*staff2	*staff2	*	*staff1	*staff1	*
*Iempty	*	*	*Itenor	*	*	*Ialto	*	*	*Isoprn	*	*
*I"Basſo	*	*	*I"Tenore	*	*	*I"Alto	*	*	*I"Soprano	*	*
*I'B.	*	*	*I'T.	*	*	*I'A.	*	*	*I'S.	*	*
*clefF4	*	*	*clefC4	*	*	*clefG2	*	*	*clefG2	*	*
*k[b-e-a-d-]	*	*	*k[b-e-a-d-]	*	*	*k[b-e-a-d-]	*	*	*k[b-e-a-d-]	*	*
*A-:	*	*	*A-:	*	*	*A-:	*	*	*A-:	*	*
*M9/8	*	*	*M9/8	*	*	*M9/8	*	*	*M9/8	*	*
=1	=1	=1	=1	=1	=1	=1	=1	=1	=1	=1	=1
!	!	!	!	!	!	!LO:TX:a:t=Andante	!	!	!LO:TX:a:t=7	!	!
!LO:TX:t=Andante	!	!	!LO:TX:t=Andante	!	!	!LO:TX:a:t=Allo	!	!	!LO:TX:a:t=Graduale	!	!
!LO:TX:a:t=5	!	!	!LO:TX:a:t=7	!	!	!LO:TX:a:t=7	!	!	!LO:TX:a:t=Andante	!	!
8%9r	.	.	8%9r	.	.	8%9r	.	.	8%9r	.	.
=2	=2	=2	=2	=2	=2	=2	=2	=2	=2	=2	=2
8%9r	.	.	8%9r	.	.	8%9r	.	.	8%9r	.	.
=3	=3	=3	=3	=3	=3	=3	=3	=3	=3	=3	=3
8%9r	.	.	8%9r	.	.	8%9r	.	.	8%9r	.	.
=4	=4	=4	=4	=4	=4	=4	=4	=4	=4	=4	=4
8%9r	.	.	8%9r	.	.	8%9r	.	.	8%9r	.	.
=5	=5	=5	=5	=5	=5	=5	=5	=5	=5	=5	=5
8%9r	.	.	8%9r	.	.	8%9r	.	.	8%9r	.	.
=6	=6	=6	=6	=6	=6	=6	=6	=6	=6	=6	=6
4r	.	.	8%9r	.	.	8%9r	.	.	8%9r	.	.
8r	.	.	.	.	.	.	.	.	.	.	.
4r	.	.	.	.	.	.	.	.	.	.	.
8r	.	.	.	.	.	.	.	.	.	.	.
!	!	!LO:DY:b	!	!	!	!	!	!	!	!	!
4E-\	U-	f	.	.	.	.	.	.	.	.	.
8E-\	-ni-	.	.	.	.	.	.	.	.	.	.
=7	=7	=7	=7	=7	=7	=7	=7	=7	=7	=7	=7
4.A-\	-ver-	.	8%9r	.	.	8%9r	.	.	8%9r	.	.
!LO:TX:t=Muzyka JWKrogulskiego	!	!	!	!	!	!	!	!	!	!	!
4AA-/	-si	.	.	.	.	.	.	.	.	.	.
8r	.	.	.	.	.	.	.	.	.	.	.
4r	.	.	.	.	.	.	.	.	.	.	.
8r	.	.	.	.	.	.	.	.	.	.	.
=8	=8	=8	=8	=8	=8	=8	=8	=8	=8	=8	=8
4r	.	.	4r	.	.	4r	.	.	4r	.	.
8r	.	.	8r	.	.	8r	.	.	8r	.	.
4r	.	.	4r	.	.	4r	.	.	4r	.	.
8r	.	.	8r	.	.	8r	.	.	8r	.	.
!	!	!LO:DY:b	!	!	!	!	!	!	!	!	!
!	!	!	!	!	!	!	!	!	!	!	!LO:DY:b
!	!	!	!	!	!LO:DY:b	!	!	!	!	!	!
4A-\	U-	f	4e-\	U-	f	4a-/	U-	f	4cc\	U-	f
8A-\	-ni-	.	8e-\	-ni-	.	8a-/	-ni-	.	8cc\	-ni-	.
!LO:LB:g=original	!	!	!	!	!	!	!	!	!	!	!
=9	=9	=9	=9	=9	=9	=9	=9	=9	=9	=9	=9
4.A-\	-ver-	.	4.e-\	-ver-	.	4.a-/	-ver-	.	4.cc\	-ver-	.
!	!	!	!LO:TX:a:t=Muzyka JWKrogulskiego	!	!	!	!	!	!LO:TX:a:t=Muzyka JWKrogulskiego	!	!
4AA-/	-si	.	4c\	-si	.	4a-/	-si	.	4a-/	-si	.
!	!	!	!	!	!	!LO:TX:a:t=Muzyka JWKrogulskiego	!	!	!	!	!
8r	.	.	8r	.	.	8r	.	.	8r	.	.
4r	.	.	4r	.	.	4r	.	.	4r	.	.
8r	.	.	8r	.	.	8r	.	.	8r	.	.
=10	=10	=10	=10	=10	=10	=10	=10	=10	=10	=10	=10
4r	.	.	4r	.	.	4r	.	.	4r	.	.
8r	.	.	8r	.	.	8r	.	.	8r	.	.
4r	.	.	4r	.	.	4r	.	.	4r	.	.
8r	.	.	8r	.	.	8r	.	.	8r	.	.
4A-\	U-	.	4A-\	u-	.	4a-/	u-	.	4a-/	u-	.
8A-\	-ni-	.	8A-\	-ni-	.	8a-/	-ni-	.	8a-/	-ni-	.
!	!	!	!LO:LB:g=original	!	!	!LO:LB:g=original	!	!	!LO:LB:g=original	!	!
=11	=11	=11	=11	=11	=11	=11	=11	=11	=11	=11	=11
4.D-/	-ver-	.	4.d-\	-ver-	.	4.a-/	-ver-	.	4.ff\	-ver-	.
4AA-/	-si	.	4c\	-si	.	4a-/	-si	.	4ee-\	-si	.
8r	.	.	8r	.	.	8r	.	.	8r	.	.
4A-\	U-	.	4c\	u-	.	4a-/	u-	.	4ee-\	u-	.
8A-\	-ni-	.	8c\	-ni-	.	8a-/	-ni-	.	8ee-\	-ni-	.
!LO:LB:g=original	!	!	!	!	!	!	!	!	!	!	!
=12	=12	=12	=12	=12	=12	=12	=12	=12	=12	=12	=12
4.B-\	-ver-	.	4.f\	-ver-	.	4.a-/	-ver-	.	4.ddn\	-ver-	.
4.E-\	-si	.	4.e-\	-si	.	4.g/	-si	.	4.dd-X\	-si	.
8A-\	qui	.	8e-\	qui	.	8a-/	qui	.	8cc\	qui	.
8C\	te	.	8A-\	te	.	8g-X/	te	.	8ee-\	te	.
8D-\	ex-	.	8B-\	ex-	.	8f/	ex-	.	8dd-\	ex-	.
=13	=13	=13	=13	=13	=13	=13	=13	=13	=13	=13	=13
4.E-\	-pec-	.	8c\L	-pec-	.	8e-/L	-pec-	.	4.cc\	-pec-	.
.	.	.	8f\	.	.	8a-/	.	.	.	.	.
!	!	!	!	!	!	!LO:TX:t=P:problem:f1 lub g1, podpisane literą f	!	!	!	!	!
.	.	.	8dn\J	.	.	8f/J	.	.	.	.	.
4E-\	-tant	.	4e-\	-tant	.	4g/	-tant	.	4b-\	-tant	.
8r	.	.	8r	.	.	8r	.	.	8r	.	.
4r	.	.	4r	.	.	4r	.	.	4r	.	.
8r	.	.	8r	.	.	8r	.	.	8r	.	.
!	!	!	!LO:LB:g=original	!	!	!LO:LB:g=original	!	!	!	!	!
=14	=14	=14	=14	=14	=14	=14	=14	=14	=14	=14	=14
!LO:TX:a:i:t=dol&colon;	!	!	!LO:TX:a:i:t=dol&colon;	!	!	!LO:TX:a:i:t=dol&colon;	!	!	!LO:TX:a:i:t=dol&colon;	!	!
!	!	!LO:DY:b	!	!	!	!	!	!	!	!	!
!	!	!	!	!	!	!	!	!	!	!	!LO:DY:b
!	!	!	!	!	!	!	!	!LO:DY:b	!	!	!
!	!	!	!	!	!LO:DY:b	!	!	!	!	!	!
2.A-\	non	p	2.e-\	non	p	2.a-/	non	p	2.cc\	non	p
4E-\	non	.	4e-\	non	.	4g/	non	.	4dd-\	non	.
8E-\	con-	.	8d-\	con-	.	8g/	con-	.	8b-\	con-	.
!LO:LB:g=original	!	!	!	!	!	!	!	!	!LO:LB:g=original	!	!
=15	=15	=15	=15	=15	=15	=15	=15	=15	=15	=15	=15
4A-\	-dun-	.	4c\	-fun-	.	4a-/	-fun-	.	4ee-\	-fun-	.
8A-\	-den-	.	8e-\	-den-	.	8a-/	-den-	.	8cc\	-den-	.
4.A-\	-tur	.	4.c\	-tur	.	4.a-/	-tur	.	4.a-/	-tur	.
4A-\	non	.	4A-\	non	.	4a-/	non	.	4a-/	non	.
8A-\	con-	.	8A-\	con-	.	8a-/	con-	.	8a-/	con-	.
=16	=16	=16	=16	=16	=16	=16	=16	=16	=16	=16	=16
4E-\	-fun-	.	4d-\	-fun-	.	4g/	-fun-	.	4b-/	-fun-	.
8E-\	-den-	.	8d-\	-den-	.	8g/	-den-	.	8g/	-den-	.
4.E-\	-tur	.	4.d-\	-tur	.	4.g/	-tur	.	4.e-/	-tur	.
4.E-\	Do-	.	4.c\	do-	.	4.a-/	Do-	.	8a-\L	Do-	.
.	.	.	.	.	.	.	.	.	8ff\	.	.
.	.	.	.	.	.	.	.	.	8ee-\J	.	.
!	!	!	!LO:LB:g=original	!	!	!LO:LB:g=original	!	!	!	!	!
=17	=17	=17	=17	=17	=17	=17	=17	=17	=17	=17	=17
4.E-\	-mi-	.	4.f\	-mi-	.	4.a-/	-mi-	.	4.ddn\	-mi-	.
4E-\	-ne	.	4e-\	-ne	.	4g/	-ne	.	4ee-\	-ne	.
!	!	!	!	!	!LO:DY:b	!	!	!	!	!	!
8r	.	.	8r	.	f	8r	.	.	8r	.	.
!	!	!LO:DY:b	!	!	!	!	!	!	!	!	!
!	!	!	!	!	!	!	!	!	!	!	!LO:DY:b
4E-\	U-	f	4B-\	U-	.	4g/	u-	f	4ee-\	U-	f
8D-\	-ni-	.	8B-\	-ni-	.	8g/	-ni-	.	8ee-\	-ni-	.
!LO:LB:g=original	!	!	!	!	!	!	!	!	!LO:LB:g=original	!	!
=18	=18	=18	=18	=18	=18	=18	=18	=18	=18	=18	=18
4.C/	-ver-	.	4.c\	-ver-	.	4.a-/	-ver-	.	4.ee-\	-ver-	.
4C/	-si	.	4c\	-si	.	4a-/	-si	.	4a-/	-si	.
8r	.	.	8r	.	.	8r	.	.	8r	.	.
8AA-/	qui	.	8c\	qui	.	8a-/	qui	.	8a-/	qui	.
8AA-/	te	.	8d-\	te	.	8g/	te	.	8b-/	te	.
8A-\	ex-	.	8e-\	ex-	.	8g-X/	ex-	.	8cc\	ex-	.
=19	=19	=19	=19	=19	=19	=19	=19	=19	=19	=19	=19
4.D-\	-pec-	.	4.d-\	-pec-	.	4.f/	-pec-	.	4.dd-\	-pec-	.
4D-\	-tant	.	4d-\	-tant	.	4f/	-tant	.	4f/	-tant	.
8r	.	.	8r	.	.	8r	.	.	8r	.	.
!	!	!LO:DY:b	!	!	!	!	!	!	!	!	!
!	!	!	!	!	!	!	!	!	!	!	!LO:DY:b
!	!	!	!	!	!	!	!	!LO:DY:b	!	!	!
!	!	!	!	!	!LO:DY:b	!	!	!	!	!	!
8BB-/L	non	p	8f\L	non	p	8d-/L	non	p	8dd-\L	non	p
8C/J	.	.	8e-\J	.	.	8e-/J	.	.	8cc\J	.	.
8D-/	con-	.	8d-\	con-	.	8f/	con-	.	8b-\	con-	.
!	!	!	!LO:LB:g=original	!	!	!LO:LB:g=original	!	!	!	!	!
=20	=20	=20	=20	=20	=20	=20	=20	=20	=20	=20	=20
4E-\	-fun-	.	4c\	-fun-	.	4c/	-fun-	.	4a-/	-fun-	.
8E-\	-den-	.	8c\	-den-	.	8e-/	-den-	.	8a-/	-den-	.
4.E-\	-tur	.	4.c-X\	-tur	.	4.e-/	-tur	.	4.a-/	-tur	.
4E-\	Do-	.	4B-\	do-	.	4dn/	do-	.	8b-/L	Do-	.
.	.	.	.	.	.	.	.	.	8f/J	.	.
8E-\	-mi-	.	8B-\	-mi-	.	8d-X/	-mi-	.	8g/	-mi-	.
!LO:LB:g=original	!	!	!	!	!	!	!	!	!LO:LB:g=original	!	!
=21	=21	=21	=21	=21	=21	=21	=21	=21	=21	=21	=21
4AA-/	-ne	.	4A-\	-ne	.	4c/	-ne	.	4a-/	-ne	.
8r	.	.	8r	.	.	8r	.	.	8r	.	.
4r	.	.	4r	.	.	4r	.	.	4r	.	.
8r	.	.	8r	.	.	8r	.	.	8r	.	.
4r	.	.	4r	.	.	4r	.	.	4r	.	.
8r	.	.	8r	.	.	8r	.	.	8r	.	.
=22	=22	=22	=22	=22	=22	=22	=22	=22	=22	=22	=22
!LO:TX:a:t=3	!	!	!LO:TX:a:t=3	!	!	!LO:TX:a:t=3	!	!	!LO:TX:a:t=3	!	!
8%9r	.	.	8%9r	.	.	8%9r	.	.	8%9r	.	.
=23	=23	=23	=23	=23	=23	=23	=23	=23	=23	=23	=23
8%9r	.	.	8%9r	.	.	8%9r	.	.	8%9r	.	.
=24	=24	=24	=24	=24	=24	=24	=24	=24	=24	=24	=24
8%9r	.	.	8%9r	.	.	8%9r	.	.	8%9r	.	.
=25	=25	=25	=25	=25	=25	=25	=25	=25	=25	=25	=25
!LO:TX:a:i:t=dol&colon;	!	!	!LO:TX:a:i:t=dol&colon;	!	!	!LO:TX:a:i:t=dolce&colon;	!	!	!LO:TX:a:i:t=dol&colon;	!	!
!	!	!LO:DY:b	!LO:SIC:v:l:s=Vi-	!	!	!LO:SIC:v:l:s=Vi-	!	!	!	!	!
!	!	!	!	!	!	!	!	!	!	!	!LO:DY:b
!	!	!	!	!	!LO:DY:b	!	!	!	!	!	!
2.F\	Vi-	p	2.c\	Ui-	p	2.f/	Ui-	p	2.a-/	Vi-	p
4.F\	-as	.	8B-\L	-as	.	4.en/	-as	.	8g/L	-as	.
.	.	.	8d-\	.	.	.	.	.	8b-/	.	.
.	.	.	8c\J	.	.	.	.	.	8a-/J	.	.
!	!	!	!LO:LB:g=original	!	!	!LO:LB:g=original	!	!	!	!	!
=26	=26	=26	=26	=26	=26	=26	=26	=26	=26	=26	=26
4.F\	tu-	.	4.B-\	tu-	.	4.en/	tu-	.	4.g/	tu-	.
4F\	-as	.	4A-\	-as	.	4f/	-as	.	4f/	-as	.
8r	.	.	8r	.	.	8r	.	.	8r	.	.
4r	.	.	4r	.	.	4r	.	.	4r	.	.
8r	.	.	8r	.	.	8r	.	.	8r	.	.
!LO:LB:g=original	!	!	!	!	!	!	!	!	!	!	!
=27	=27	=27	=27	=27	=27	=27	=27	=27	=27	=27	=27
!	!	!LO:DY:a	!LO:TX:t=P:problem:skreślona przed-nuta (pomyłka)	!	!	!	!	!LO:DY:a	!	!	!LO:DY:a
2.F\	Do-	<	(2.A-\	Do-	.	2.f/	Do-	<	(2.cc\	Do-	<
!	!	!	!	!	!LO:DY:a	!	!	!	!	!	!LO:DY:a
4.BB-/	-mi-	[[	4B-\)	.	<	4.g/	-mi-	[[	8ee-\L)	.	[ >
.	.	.	.	.	.	.	.	.	8dd-\J	.	.
.	.	.	8d-\	-mi-	[[	.	.	.	8b-\	-mi-	]]
!	!	!	!	!	!	!	!	!	!LO:LB:g=original	!	!
=28	=28	=28	=28	=28	=28	=28	=28	=28	=28	=28	=28
!	!	!LO:DY:a	!	!	!LO:DY:a	!	!	!LO:DY:a	!	!	!
[4.C/	-ne	>	[4.c\	-ne	>	4.f/	.	>	(4.a-/	-ne	.
4C/]	.	.	4c\]	.	]	4en/	-ne	.	4g/)	.	.
8r	.	]	8r	.	.	8r	.	]	8r	.	.
4r	.	.	4r	.	.	4r	.	.	4r	.	.
8r	.	.	8r	.	.	8r	.	.	8r	.	.
=29	=29	=29	=29	=29	=29	=29-	=29	=29	=29	=29	=29
!LO:TX:t=cres_:problem:dynamics with extention lines	!	!LO:DY:a	!LO:TX:t=cres_:problem:dynamics with extention lines	!	!LO:DY:a	!	!	!	!	!	!
4.F\	no-	.	4.c\	no-	.	4.a-/	no-	.	4.a-/	no-	.
!	!	!	!	!	!	!LO:TX:t=cres_:problem:dynamics with extention lines	!	!	!	!	!
4.F\	-tas	.	4.c\	-tas	.	4.a-/	-tas	.	4.a-/	-tas	.
!	!	!	!	!	!	!	!	!	!LO:TX:t=cres_:problem:dynamics with extention lines	!	!
4.E-\	fac	.	4.d-\	fac	.	8g/L	fac	.	8b-/L	fac	.
.	.	.	.	.	.	8f/	.	.	8a-/	.	.
.	.	.	.	.	.	8g/J	.	.	8b-/J	.	.
!	!	!	!LO:LB:g=original	!	!	!LO:LB:g=original	!	!	!	!	!
=30	=30	=30	=30	=30	=30	=30	=30	=30	=30	=30	=30
!LO:TX:t=P:problem:skreślenie w tekście	!	!	!	!	!	!	!	!	!	!	!
4.A-\	mi-	.	4.c\	mi-	.	4.a-/	mi-	.	4.cc\	mi-	.
4A-\	-hi	.	4c\	-hi	.	4a-/	-hi	.	4cc\	-hi	.
8r	.	.	8r	.	.	8r	.	.	8r	.	.
4r	.	.	4r	.	.	4r	.	.	4r	.	.
8r	.	.	8r	.	.	8r	.	.	8r	.	.
!LO:LB:g=original	!	!	!	!	!	!	!	!	!	!	!
=31	=31	=31	=31	=31	=31	=31	=31	=31	=31	=31	=31
4.G\	no-	.	4.e-\	no-	.	4.cc\	no-	.	4.cc\	no-	.
4.G\	-tas	.	4.e-\	-tas	.	4.cc\	-tas	.	4.cc\	-tas	.
4.G\	fac	.	4.f\	fac	.	8bn\L	fac	.	8ddn\L	fac	.
.	.	.	.	.	.	8an\	.	.	8cc\	.	.
.	.	.	.	.	.	8b\J	.	.	8dd\J	.	.
!	!	!	!	!	!	!	!	!	!LO:LB:g=original	!	!
=32	=32	=32	=32	=32	=32	=32	=32	=32	=32	=32	=32
4.C/	mi-	.	4.dn\	mi-	.	4.bn\	mi-	.	4.ff\	mi-	.
4C/	-hi	.	4c\	-hi	[	4cc\	-hi	[	4ee-\	-hi	[
8r	.	.	8r	.	.	8r	.	.	8r	.	.
!	!	!	!	!	!	!	!	!LO:DY:b	!	!	!
!	!	!	!	!	!LO:DY:b	!	!	!	!	!	!
4.C/	et	f	4.c\	et	f	4.cc\	et	f	4.ee-\	et	f
!	!	!	!	!	!	!LO:LB:g=original	!	!	!	!	!
=33	=33	=33	=33	=33	=33	=33	=33	=33	=33	=33	=33
4.AAn/	se-	.	4.c\	se-	.	4.f#X/	se-	.	4.ee-\	se-	.
4.AA/	-mi-	.	4.dn\	-mi-	.	4.f#/	-mi-	.	4.ddn\	-mi-	.
4.AA/	-tas	.	4.e-\	-tas	.	4.f#/	-tas	.	4.cc\	-tas	.
!	!	!	!LO:LB:g=original	!	!	!	!	!	!	!	!
=34	=34	=34	=34	=34	=34	=34	=34	=34	=34	=34	=34
2.BB-/	tu-	.	2.e-\	tu-	.	2.g/	tu-	.	2.b-\	tu-	.
4.BB-/	-as	.	4.e-\	-as	.	4.g/	-as	.	4.b-\	-as	.
!LO:LB:g=original	!	!	!	!	!	!	!	!	!	!	!
=35	=35	=35	=35	=35	=35	=35	=35	=35	=35	=35	=35
4.BB-/	e-	.	[4.e-\	e-	.	4.f/	e-	.	4.a-/	e-	.
4.BB-/	-do-	.	8e-\L]	.	.	4.f/	-do-	.	4.b-/	-do-	.
.	.	.	8dn\	.	.	.	.	.	.	.	.
.	.	.	8c\J	.	.	.	.	.	.	.	.
4.BB-/	-ce	.	8d\L	-do-	.	8f/L	-ce	.	4.a-/	-ce	.
.	.	.	8c\J	.	.	8e-/	.	.	.	.	.
.	.	.	8B-\	-ce	.	8dn/J	.	.	.	.	.
!	!	!	!	!	!	!LO:LB:g=original	!	!	!LO:LB:g=original	!	!
=36	=36	=36	=36	=36	=36	=36	=36	=36	=36	=36	=36
4.E-\	me	.	4.B-\	me	.	4.e-/	me	.	4.g/	me	.
4r	.	.	4r	.	.	4r	.	.	4r	.	.
8r	.	.	8r	.	.	8r	.	.	8r	.	.
!LO:TX:t=P:problem:skreślenie w tekście	!	!	!	!	!	!	!	!	!	!	!
4.E-\	et	.	4.d-X\	et	.	4.g/	et	.	4.b-\	et	.
!	!	!	!LO:LB:g=original	!	!	!	!	!	!	!	!
=37	=37	=37	=37	=37	=37	=37	=37	=37	=37	=37	=37
[4.E-\	se-	.	[4.d-\	se-	.	[4.g/	se-	.	[4.b-\	se-	.
4E-\]	.	.	4d-\]	.	.	4g/]	.	.	4b-\]	.	.
8E-\	-mi-	.	8d-\	-mi-	.	8g/	-mi-	.	8b-\	-mi-	.
4.E-\	-tas	.	4.c\	-tas	.	4.f#X/	-tas	.	4.an,/	-tas	.
=38	=38	=38	=38	=38	=38	=38	=38	=38	=38	=38	=38
4.E-\	tu-	.	4.d-\	tu-	.	4.g/	tu-	.	4.b-/	tu-	.
4E-\	-as	.	4d-\	-as	.	4e-/	-as	.	4g/	-as	.
8r	.	.	8r	.	.	8r	.	.	8r	.	.
4r	.	.	4r	.	.	4r	.	.	4r	.	.
8r	.	.	8r	.	.	8r	.	.	8r	.	.
!LO:LB:g=original	!	!	!	!	!	!LO:LB:g=original	!	!	!	!	!
=39	=39	=39	=39	=39	=39	=39	=39	=39	=39	=39	=39
4.E-\	e-	.	4.B-\	e-	.	4.g/	e-	.	4.dd-\	e-	.
4.E-\	-do-	.	4.B-\	-do-	.	4.g/	-do-	.	4.dd-\	-do-	.
!	!	!	!	!	!	!	!	!	!LO:TX:t=P:problem:c2 lub d2	!	!
4.E-\	-ce	.	4.An\	-ce	.	4.f#X/	-ce	.	4.cc\	-ce	.
!	!	!	!	!	!	!	!	!	!LO:LB:g=original	!	!
=40	=40	=40	=40	=40	=40	=40	=40	=40	=40	=40	=40
2.E-;\	me	.	2.B-;\	me	.	2.g;/	me	.	2.dd-;\	me	.
4r	.	.	4r	.	.	4r	.	.	4r	.	.
8r	.	.	8r	.	.	8r	.	.	8r	.	.
!	!	!	!LO:LB:g=original	!	!	!	!	!	!	!	!
=41	=41	=41	=41	=41	=41	=41	=41	=41	=41	=41	=41
!LO:TX:a:i:t=dol&colon;	!	!	!LO:TX:a:i:t=dol&colon;	!	!	!LO:TX:a:i:t=dol&colon;	!	!	!LO:TX:a:i:t=dol&colon;	!	!
!	!	!LO:DY:b	!	!	!	!	!	!	!	!	!
!	!	!	!	!	!	!	!	!	!	!	!LO:DY:b
!	!	!	!	!	!	!	!	!LO:DY:b	!	!	!
!	!	!	!	!	!LO:DY:b	!	!	!	!	!	!
2.AA-/	U-	p	2.e-\	U-	p	2.e-/	U-	p	2.cc\	U-	p
4.BB-/	-ni-	.	4.e-\	-ni-	.	4.e-/	-ni-	.	4.dd-\	.	.
=42	=42	=42	=42	=42	=42	=42	=42	=42	=42	=42	=42
2.C/	-ver-	.	2.c\	-ver-	.	2.a-/	-ver-	.	4.ee-\	.	.
.	.	.	.	.	.	.	.	.	4.een\	-ni-	.
4.D-/	-si	.	4.B-\	-si	.	4.f/	-si	.	8ff\L	-ver-	.
.	.	.	.	.	.	.	.	.	8dd-\J	.	.
.	.	.	.	.	.	.	.	.	8b-\	-si	.
!LO:LB:g=original	!	!	!	!	!	!LO:LB:g=original	!	!	!	!	!
=43	=43	=43	=43	=43	=43	=43	=43	=43	=43	=43	=43
2.E-\	u-	.	(4.c\	u-	.	(4.e-/	u-	.	2.a-/	u-	.
.	.	.	4.c-X\)	.	.	4.dn/)	.	.	.	.	.
4.E-\	-ni-	.	4.B-\	-ni-	.	4.d-X/	-ni-	.	4.g/	-ni-	.
!	!	!	!LO:LB:g=original	!	!	!	!	!	!LO:LB:g=original	!	!
=44	=44	=44	=44	=44	=44	=44	=44	=44	=44	=44	=44
4.AA-/	-ver-	.	4.B-\	-ver-	.	4.d-/	-ver-	.	4.g/	-ver-	.
8AA-/	-si	.	8A-\	-si	.	8c/	-si	.	8a-/	-si	.
8r	.	.	8r	.	.	8r	.	.	8r	.	.
8r	.	.	8r	.	.	8r	.	.	8r	.	.
!	!	!	!	!	!	!	!	!LO:DY:b	!	!	!
!	!	!	!	!	!LO:DY:b	!	!	!	!	!	!
8AA-/	qui	f	8c\	qui	f	8a-/	qui	f	8a-/	qui	f
8AA-/	te	.	8d-\	te	.	8g/	te	.	8b-/	te	.
8A-\	ex-	.	8e-\	ex-	.	8g-X/	ex-	.	8cc/	ex-	.
=45	=45	=45	=45	=45	=45	=45	=45	=45	=45	=45	=45
4.D-\	-pec-	.	4.d-\	-pec-	.	4.f/	-pec-	.	4.dd-\	-pec-	.
4D-\	-tant	.	4d-\	-tant	.	4f/	-tant	.	4f/	-tant	.
8r	.	.	8r	.	.	8r	.	.	8r	.	.
!	!	!LO:DY:b	!	!	!	!	!	!	!	!	!
!	!	!	!	!	!	!	!	!	!	!	!LO:DY:b
!	!	!	!	!	!	!	!	!LO:DY:b	!	!	!
!	!	!	!	!	!LO:DY:b	!	!	!	!	!	!
8BB-/L	non	p	8f\L	non	p	8d-/L	non	p	8dd-\L	non	p
8C/J	.	.	8e-\J	.	.	8e-/J	.	.	8cc\J	.	.
8D-/	con-	.	8d-\	con-	.	8f/	con-	.	8b-\	con-	.
!LO:LB:g=original	!	!	!	!	!	!LO:LB:g=original	!	!	!	!	!
=46	=46	=46	=46	=46	=46	=46	=46	=46	=46	=46	=46
4E-\	-fun-	.	4c\	-dun-	.	4c/	-fun-	.	4a-/	-fun-	.
8E-\	-den-	.	8c\	-den-	.	8e-/	-den-	.	8a-/	-den-	.
4.E-\	-tur	.	4.c-X\	-tur	.	4.e-/	-tur	.	4.a-/	-tur	.
4E-\	Do-	.	4B-\	Do-	.	4dn/	do-	.	8b-/L	do-	.
.	.	.	.	.	.	.	.	.	8f/J	.	.
8E-\	-mi-	.	8B-\	-mi-	.	8d-X/	-mi-	.	8g/	-mi-	.
!	!	!	!LO:LB:g=original	!	!	!	!	!	!LO:LB:g=original	!	!
=47	=47	=47	=47	=47	=47	=47	=47	=47	=47	=47	=47
4AA-/	-ne	.	4A-\	-ne	.	4c/	-ne	.	4a-/	-ne	.
8r	.	.	8r	.	.	8r	.	.	8r	.	.
4r	.	.	4r	.	.	4r	.	.	4r	.	.
8r	.	.	8r	.	.	8r	.	.	8r	.	.
!	!	!LO:DY:b	!	!	!	!	!	!	!	!	!
!	!	!	!	!	!	!	!	!	!	!	!LO:DY:b
!	!	!	!	!	!	!	!	!LO:DY:b	!	!	!
!	!	!	!	!	!LO:DY:b	!	!	!	!	!	!
4AA-/	U-	pp	4E-/	U-	pp	4c/	U-	pp	4g-X/	U-	pp
8AA-/	-ni-	.	8E-/	-ni-	.	8c/	-ni-	.	8g-/	-ni-	.
=48	=48	=48	=48	=48	=48	=48	=48	=48	=48	=48	=48
4.AA-/	-ver-	.	4.F/	-ver-	.	4.d-/	-ver-	.	4.f/	-ver-	.
4AA-/	-si	.	4F/	-si	.	4d-/	-si	.	4f/	-si	.
8r	.	.	8r	.	.	8r	.	.	8r	.	.
8AA-/	qui	.	8G/	qui	.	8d-/	qui	.	8f-X/	qui	.
8AA-/	te	.	8G/	te	.	8e-/	te	.	8g-X/	te	.
8AA-/	ex-	.	8G/	ex-	.	8d-/	ex-	.	8f-/	ex-	.
!LO:LB:g=original	!	!	!	!	!	!LO:LB:g=original	!	!	!	!	!
=49	=49	=49	=49	=49	=49	=49	=49	=49	=49	=49	=49
4.AA-/	-pec-	.	4.A-/	-pec-	.	4.c/	-pec-	.	4.e-/	-pec-	.
4AA-/	-tant	.	4A-/	-tant	.	4c/	-tant	.	4e-/	-tant	.
8r	.	.	8r	.	.	8r	.	.	8r	.	.
4AA-/	non	.	4G-X/	non	.	4c/	non	.	4e-/	non	.
8AA-/	con-	.	8G-/	con-	.	8c/	con-	.	8e-/	con-	.
!	!	!	!LO:LB:g=original	!	!	!	!	!	!LO:LB:g=original	!	!
=50	=50	=50	=50	=50	=50	=50	=50	=50	=50	=50	=50
4AA-/	-fun-	.	4F/	-fun-	.	4d-/	-fun-	.	4d-/	-fun-	.
8AA-/	-den-	.	8F/	-den-	.	8d-/	-den-	.	8d-/	-den-	.
4.AA-/	-tur	.	4.F/	-tur	.	4.d-/	-tur	.	4.d-/	-tur	.
4AA-/	Do-	.	4F-X/	Do-	.	8B-/L	Do-	.	8d-/L	Do-	.
.	.	.	.	.	.	8c/J	.	.	8e-/J	.	.
8AA-/	-mi-	.	8F-/	-mi-	.	8B-/	-mi-	.	8d-/	-mi-	.
=51	=51	=51	=51	=51	=51	=51	=51	=51	=51	=51	=51
4AA-/	-ne	.	4E-/	-ne	.	4A-/	-ne	.	4c/	-ne	.
8r	.	.	8r	.	.	8r	.	.	8r	.	.
4r	.	.	4r	.	.	4r	.	.	4r	.	.
8r	.	.	8r	.	.	8r	.	.	8r	.	.
4r	.	.	4r	.	.	4r	.	.	4r	.	.
!LO:TX:b:t=VS&colon;	!	!	!LO:TX:b:t=VS&colon;	!	!	!LO:TX:b:t=VS&colon;	!	!	!	!	!
8r	.	.	8r	.	.	8r	.	.	8r	.	.
!LO:PB:g=original	!	!	!LO:PB:g=original	!	!	!LO:PB:g=original	!	!	!	!	!
=52||	=52||	=52||	=52||	=52||	=52||	=52||	=52||	=52||	=52||	=52||	=52||
*	*	*	*	*	*	*	*	*	*k[b-e-a-d-]	*	*
*M4/4	*	*	*M4/4	*	*	*M4/4	*	*	*M4/4	*	*
*met(c)	*	*	*met(c)	*	*	*met(c)	*	*	*met(c)	*	*
!LO:TX:a:t=5	!	!	!LO:TX:a:t=1	!	!	!LO:TX:t=Allo Moderato	!	!	!LO:TX:a:t=Allo Moderato	!	!
!LO:TX:t=Allo Moderato	!	!	!LO:TX:t=Allo Moderato	!	!	!	!	!	!	!	!
!	!	!	!	!	!	!	!	!LO:DY:b	!	!	!
1r	.	.	1r	.	.	2a-/	Al-	p	2a-/	Al-	p
.	.	.	.	.	.	2a-/	-le-	.	2a-/	-le-	.
!	!	!	!	!	!	!	!	!	!LO:LB:g=original	!	!
=53	=53	=53	=53	=53	=53	=53	=53	=53	=53	=53	=53
!	!	!	!	!	!LO:DY:b	!	!	!	!	!	!
1r	.	.	2e-\	Al-	p	(4a-/	-lu-	.	2.b-\	-lu-	.
.	.	.	.	.	.	8g/L	.	.	.	.	.
.	.	.	.	.	.	8f/J	.	.	.	.	.
.	.	.	4d-\	.	.	4g/)	.	.	.	.	.
.	.	.	4c\	.	.	4a-/	-ja	.	4cc\	-ja	.
=54	=54	=54	=54	=54	=54	=54	=54	=54	=54	=54	=54
1r	.	.	2B-\	.	.	2a-/	Al-	.	(4dd-\	Al-	.
.	.	.	.	.	.	.	.	.	8ee-\L	.	.
.	.	.	.	.	.	.	.	.	8ff\J	.	.
.	.	.	2e-\	-le-	.	2g/	-le-	.	4ee-\)	.	.
.	.	.	.	.	.	.	.	.	4dd-\	-le-	.
=55	=55	=55	=55	=55	=55	=55	=55	=55	=55	=55	=55
1r	.	.	(4A-\	-lu-	.	2a-/	-lu-	.	2cc\	-lu-	.
.	.	.	4c\)	.	.	.	.	.	.	.	.
.	.	.	4e-\	-ja	.	4g/	-ja	.	4b-\	-ja	.
.	.	.	4r	.	.	4r	.	.	4r	.	.
!	!	!	!	!	!	!LO:LB:g=original	!	!	!	!	!
=56	=56	=56	=56	=56	=56	=56	=56	=56	=56	=56	=56
!	!	!	!	!	!	!	!	!	!LO:TX:a:t=4	!	!
1r	.	.	2A-\	Al-	.	2A-/	Al-	.	1r	.	.
.	.	.	2A-\	-le-	.	2A-/	-le-	.	.	.	.
!	!	!	!LO:LB:g=original	!	!	!	!	!	!	!	!
=57	=57	=57	=57	=57	=57	=57	=57	=57	=57	=57	=57
2E-\	Al-	p	(4A-\	-lu-	.	2.B-/	-lu-	.	1r	.	.
.	.	.	8G\L	.	.	.	.	.	.	.	.
.	.	.	8F\J	.	.	.	.	.	.	.	.
4D-\	.	.	4G\)	.	.	.	.	.	.	.	.
4C\	.	.	4A-\	-ja	.	4c/	-ja	.	.	.	.
=58	=58	=58	=58	=58	=58	=58	=58	=58	=58	=58	=58
2BB-/	.	.	2A-/	Al-	.	(4d-/	Al-	.	1r	.	.
.	.	.	.	.	.	8e-/L	.	.	.	.	.
.	.	.	.	.	.	8f/J	.	.	.	.	.
2E-\	-le-	.	2G/	-le-	.	4e-/)	.	.	.	.	.
.	.	.	.	.	.	4d-/	-le-	.	.	.	.
=59	=59	=59	=59	=59	=59	=59	=59	=59	=59	=59	=59
!	!	!	!	!	!	!	!	!	!LO:TX:b:t=VS&colon;	!	!
2AA-/	-lu-	.	(4A-/	-lu-	.	(4c/	-lu-	.	1r	.	.
.	.	.	4G/	.	.	4e-/	.	.	.	.	.
2BB-/	-ja	.	4F/)	.	.	4a-/)	.	.	.	.	.
.	.	.	4A-/	-ja	.	4dn/	-ja	.	.	.	.
!LO:LB:g=original	!	!	!	!	!	!	!	!	!LO:PB:g=original	!	!
=60	=60	=60	=60	=60	=60	=60	=60	=60	=60	=60	=60
1E-	Al-	.	4G\	Al-	.	2e-/	Al-	.	2e-/	Al-	p
.	.	.	4e-\	.	.	.	.	.	.	.	.
.	.	.	4dn\	.	.	2e-/	-le-	.	2e-/	-le-	.
.	.	.	4c\	.	.	.	.	.	.	.	.
!	!	!	!	!	!	!LO:LB:g=original	!	!	!	!	!
=61	=61	=61	=61	=61	=61	=61	=61	=61	=61	=61	=61
1BB-	-le-	.	2B-\	.	.	(4e-/	-lu-	.	2.f/	-lu-	.
.	.	.	.	.	.	8dn/L	.	.	.	.	.
.	.	.	.	.	.	8c/J	.	.	.	.	.
.	.	.	4A-\	.	.	4d/)	.	.	.	.	.
.	.	.	4G\	.	.	4e-/	-ja	.	4g/	-ja	.
!	!	!	!LO:LB:g=original	!	!	!	!	!	!	!	!
=62	=62	=62	=62	=62	=62	=62	=62	=62	=62	=62	=62
2C/	-lu-	.	2F/	.	.	2e-/	Al-	.	(4a-/	Al-	.
.	.	.	.	.	.	.	.	.	8b-/L	.	.
.	.	.	.	.	.	.	.	.	8cc/J	.	.
2Dn/	.	.	2B-\	-le-	.	2f/	-le-	.	4b-/)	.	.
.	.	.	.	.	.	.	.	.	4a-/	-le-	.
=63	=63	=63	=63	=63	=63	=63	=63	=63	=63	=63	=63
1E-	-ja	.	(2B-\	-lu-	.	2e-/	-lu-	.	(4g/	-lu-	.
.	.	.	.	.	.	.	.	.	4dd-/	.	.
.	.	.	4e-\)	.	.	2g/	-ja	.	4cc/)	.	.
.	.	.	4d-X\	-ja	.	.	.	.	4b-/	-ja	.
!	!	!	!	!	!	!	!	!	!LO:LB:g=original	!	!
=64	=64	=64	=64	=64	=64	=64	=64	=64	=64	=64	=64
!	!	!LO:DY:b	!	!	!	!	!	!	!	!	!
!	!	!	!	!	!	!	!	!	!	!	!LO:DY:b
!	!	!	!	!	!	!	!	!LO:DY:b	!	!	!
!	!	!	!	!	!LO:DY:b	!	!	!	!	!	!
(2A-\	Al-	f	2c\	Al-	f	2a-/	Al-	f	2a-/	Al-	f
4G\)	.	.	2A-\	-le-	.	2a-/	-le-	.	2a-/	-le-	.
4F\	-le-	.	.	.	.	.	.	.	.	.	.
=65	=65	=65	=65	=65	=65	=65	=65	=65	=65	=65	=65
(2E-\	-lu-	.	1e-	-lu-	.	4a-/	-lu-	.	2.b-\	-lu-	.
.	.	.	.	.	.	8g/L	.	.	.	.	.
.	.	.	.	.	.	8f/J	.	.	.	.	.
4D-\)	.	.	.	.	.	4g/	.	.	.	.	.
4C\	-ja	.	.	.	.	4a-/	-ja	.	4cc\	-ja	.
!LO:LB:g=original	!	!	!	!	!	!LO:LB:g=original	!	!	!	!	!
=66	=66	=66	=66	=66	=66	=66	=66	=66	=66	=66	=66
2BB-/	Al-	.	2f\	.	.	2a-/	Al-	.	4dd-\	Al-	.
.	.	.	.	.	.	.	.	.	8ee-\L	.	.
.	.	.	.	.	.	.	.	.	8ff\J	.	.
2E-\	-le-	.	2B-\	-ja	.	2g/	-le-	.	4ee-\	.	.
.	.	.	.	.	.	.	.	.	4dd-\	.	.
=67	=67	=67	=67	=67	=67	=67	=67	=67	=67	=67	=67
(<2AA-/	-lu-	.	[1c	Al-	.	(2a-/	-lu-	.	2cc\	.	.
4A-\)	.	.	.	.	.	4cc/)	.	.	[2ee-\	.	.
4G-X\	-ja	.	.	.	.	4b-/	-ja	.	.	.	.
!	!	!	!LO:LB:g=original	!	!	!	!	!	!	!	!
=68	=68	=68	=68	=68	=68	=68	=68	=68	=68	=68	=68
1F	Al-	.	1c]	.	.	1an	Al-	.	4ee-\]	.	.
.	.	.	.	.	.	.	.	.	8ff\L	.	.
.	.	.	.	.	.	.	.	.	8gg-X\J	.	.
.	.	.	.	.	.	.	.	.	4ff\	.	.
.	.	.	.	.	.	.	.	.	4ee-\	-le-	.
!	!	!	!	!	!	!	!	!	!LO:LB:g=original	!	!
=69	=69	=69	=69	=69	=69	=69	=69	=69	=69	=69	=69
4B-\	.	.	1d-	-le-	.	2.b-/	.	.	[1dd-	-lu-	.
4A-\	.	.	.	.	.	.	.	.	.	.	.
4Gn\	.	.	.	.	.	.	.	.	.	.	.
4F\	.	.	.	.	.	4a-X/	-le-	.	.	.	.
=70	=70	=70	=70	=70	=70	=70	=70	=70	=70	=70	=70
1E-	.	.	1B-	-lu-	.	2g/	-lu-	.	4dd-\]	.	.
.	.	.	.	.	.	.	.	.	8ee-\L	.	.
.	.	.	.	.	.	.	.	.	8ff\J	.	.
.	.	.	.	.	.	2g/	-ja	.	4ee-\	.	.
.	.	.	.	.	.	.	.	.	4dd-\	-ja	.
!LO:LB:g=original	!	!	!	!	!	!	!	!	!	!	!
=71	=71	=71	=71	=71	=71	=71	=71	=71	=71	=71	=71
1A-	-le-	.	2c\	-ja	.	2a-/	Al-	.	4cc\	Al-	.
.	.	.	.	.	.	.	.	.	4cc\	-le-	.
.	.	.	2r	.	.	2g/	-le-	.	[2cc\	-lu-	.
!	!	!	!	!	!	!LO:LB:g=original	!	!	!	!	!
=72	=72	=72	=72	=72	=72	=72	=72	=72	=72	=72	=72
1A-	-lu-	.	1r	.	.	2f#X/	-lu-	.	4cc\]	.	.
.	.	.	.	.	.	.	.	.	8ddn\L	.	.
.	.	.	.	.	.	.	.	.	8ee-\J	.	.
.	.	.	.	.	.	2f#/	-ja	.	4dd\	.	.
.	.	.	.	.	.	.	.	.	4cc\	.	.
=73	=73	=73	=73	=73	=73	=73	=73	=73	=73	=73	=73
!	!	!	!	!	!LO:DY:b	!	!	!	!	!	!
4G\	-ja	.	2G/	Al-	f	2g/	Al-	.	4bn\	-ja	.
4r	.	.	.	.	.	.	.	.	4r	.	.
2r	.	.	2G/	-le-	.	2g/	-le-	.	2r	.	.
!	!	!	!	!	!	!	!	!	!LO:LB:g=original	!	!
=74	=74	=74	=74	=74	=74	=74	=74	=74	=74	=74	=74
!	!	!	!	!	!	!	!	!	!LO:TX:a:t=3	!	!
2Dn/	Al-	.	2.An\	-lu-	.	(4g/	-lu-	.	1r	.	.
.	.	.	.	.	.	8f#X/L	.	.	.	.	.
.	.	.	.	.	.	8en/J)	.	.	.	.	.
4C/	.	.	.	.	.	4f#/	.	.	.	.	.
4BBn/	.	.	4Bn\	-ja	.	4g/	-ja	.	.	.	.
!	!	!	!LO:LB:g=original	!	!	!	!	!	!	!	!
=75	=75	=75	=75	=75	=75	=75	=75	=75	=75	=75	=75
2AAn/	.	.	(4c\	Al-	.	2g/	Al-	.	1r	.	.
.	.	.	8dn\L	.	.	.	.	.	.	.	.
.	.	.	8en\J	.	.	.	.	.	.	.	.
2Dn/	-le-	.	4d\)	.	.	2f#X/	-le-	.	.	.	.
.	.	.	4c\	-le-	.	.	.	.	.	.	.
!LO:LB:g=original	!	!	!	!	!	!	!	!	!	!	!
=76	=76	=76	=76	=76	=76	=76	=76	=76	=76	=76	=76
2GG/	-lu-	.	4Bn\	-lu-	.	(2g/	-lu-	.	1r	.	.
.	.	.	4G\	.	.	.	.	.	.	.	.
2G\	-ja	.	4An\	.	.	4f#X/)	.	.	.	.	.
.	.	.	4B\	-ja	.	4fn/	-ja	.	.	.	.
!	!	!	!	!	!	!LO:LB:g=original	!	!	!	!	!
=77	=77	=77	=77	=77	=77	=77	=77	=77	=77	=77	=77
!	!	!	!	!	!	!	!	!	!	!	!LO:DY:b
(4C/	Al-	.	[1c	Al-	.	4e-/	Al-	.	2cc\	Al-	f
4Dn/	.	.	.	.	.	4f/	.	.	.	.	.
4E-/)	.	.	.	.	.	4g/	.	.	2cc\	-le-	.
4C/	-le-	.	.	.	.	4a-/	.	.	.	.	.
=78	=78	=78	=78	=78	=78	=78	=78	=78	=78	=78	=78
[1G	-lu-	.	4c\]	.	.	1g	.	.	2.ddn\	-lu-	.
.	.	.	8Bn\L	.	.	.	.	.	.	.	.
.	.	.	8An\J	.	.	.	.	.	.	.	.
.	.	.	4B\	.	.	.	.	.	.	.	.
.	.	.	4c\	-le-	.	.	.	.	4ee-\	-ja	.
!	!	!	!LO:LB:g=original	!	!	!	!	!	!	!	!
=79	=79	=79	=79	=79	=79	=79	=79	=79	=79	=79	=79
1G]	.	.	2dn\	-lu-	.	2bn\	.	.	4ff\	Al-	.
.	.	.	.	.	.	.	.	.	8gg\L	.	.
.	.	.	.	.	.	.	.	.	8aa-\J	.	.
.	.	.	2Bn\	.	.	2ddn\	-le-	.	4gg\	.	.
.	.	.	.	.	.	.	.	.	4ff\	-le-	.
=80	=80	=80	=80	=80	=80	=80	=80	=80	=80	=80	=80
2C/	.	.	1c	-ja	.	2cc\	-lu-	.	4ee-\	-lu-	.
.	.	.	.	.	.	.	.	.	8ff\L	.	.
.	.	.	.	.	.	.	.	.	8gg\J	.	.
2F\	-ja	.	.	.	.	2an/	.	.	4ff\	.	.
.	.	.	.	.	.	.	.	.	4ee-\	.	.
!LO:LB:g=original	!	!	!	!	!	!	!	!	!LO:LB:g=original	!	!
=81	=81	=81	=81	=81	=81	=81	=81	=81	=81	=81	=81
2BB-/	Al-	.	2B-X\	Al-	.	4b-X\	-ja	.	4ddn\	-ja	.
.	.	.	.	.	.	4r	.	.	4r	.	.
2B-\	-le-	.	2B-\	-le-	.	2r	.	.	2r	.	.
!	!	!	!	!	!	!LO:LB:g=original	!	!	!	!	!
=82	=82	=82	=82	=82	=82	=82	=82	=82	=82	=82	=82
!	!	!	!	!	!	!	!	!	!LO:TX:a:t=3	!	!
(4B-\	-lu-	.	2.c\	-lu-	.	2f/	Al-	.	1r	.	.
8An\L	.	.	.	.	.	.	.	.	.	.	.
8G\J	.	.	.	.	.	.	.	.	.	.	.
4A\)	.	.	.	.	.	4e-/	.	.	.	.	.
4B-\	-ja	.	4dn\	-ja	.	4dn/	.	.	.	.	.
=83	=83	=83	=83	=83	=83	=83	=83	=83	=83	=83	=83
2B-\	Al-	.	4e-\	Al-	.	2c/	.	.	1r	.	.
.	.	.	8f\L	.	.	.	.	.	.	.	.
.	.	.	8g\J	.	.	.	.	.	.	.	.
2An\	-le-	.	4f\	.	.	2f/	-le-	.	.	.	.
.	.	.	4e-\	-le-	.	.	.	.	.	.	.
!	!	!	!LO:LB:g=original	!	!	!	!	!	!	!	!
=84	=84	=84	=84	=84	=84	=84	=84	=84	=84	=84	=84
4B-\	-lu-	.	4d-X\	-lu-	.	2B-/	-lu-	.	1r	.	.
4A-X\	.	.	4c\	.	.	.	.	.	.	.	.
4G\	.	.	4B-\	.	.	2b-/	-ja	.	.	.	.
4F\	-ja	.	4A-X\	-ja	.	.	.	.	.	.	.
!LO:LB:g=original	!	!	!	!	!	!	!	!	!	!	!
=85	=85	=85	=85	=85	=85	=85	=85	=85	=85	=85	=85
1E-	Al-	.	4G\	Al-	.	4e-/	Al-	.	2ee-\	Al-	.
.	.	.	4A-\	.	.	4f/	.	.	.	.	.
.	.	.	4B-\	.	.	4g/	.	.	2ee-\	-le-	.
.	.	.	4c\	.	.	4a-/	.	.	.	.	.
=86	=86	=86	=86	=86	=86	=86	=86	=86	=86	=86	=86
1BB-	-le-	.	2B-\	.	.	2.f/	.	.	4ee-\	-lu-	.
.	.	.	.	.	.	.	.	.	8ddn\L	.	.
.	.	.	.	.	.	.	.	.	8cc\J	.	.
.	.	.	4A-\	.	.	.	.	.	4dd\	.	.
.	.	.	4G/	-le-	.	4g/	-le-	.	4ee-\	-ja	.
!	!	!	!	!	!	!LO:LB:g=original	!	!	!	!	!
=87	=87	=87	=87	=87	=87	=87	=87	=87	=87	=87	=87
1BB-	-lu-	.	2F/	-lu-	.	(4a-/	-lu-	.	2ee-\	Al-	.
.	.	.	.	.	.	8b-/L	.	.	.	.	.
.	.	.	.	.	.	8cc/J)	.	.	.	.	.
.	.	.	2B-/	-ja	.	4b-/	.	.	2ddn\	-le-	.
.	.	.	.	.	.	4a-/	-ja	.	.	.	.
!	!	!	!	!	!	!	!	!	!LO:LB:g=original	!	!
=88	=88	=88	=88	=88	=88	=88	=88	=88	=88	=88	=88
1E-	-ja	.	2.B-\	Al-	.	2.g/	Al-	.	2ee-\	-lu-	.
.	.	.	.	.	.	.	.	.	4ff\	.	.
.	.	.	4c\	-le-	.	4an/	.	.	4ee-\	-ja	.
!	!	!	!LO:LB:g=original	!	!	!	!	!	!	!	!
=89	=89	=89	=89	=89	=89	=89	=89	=89	=89	=89	=89
2E-\	Al-	.	(2d-\	-lu-	.	4b-/	.	.	4dd-X\	Al-	.
.	.	.	.	.	.	4a-X/	.	.	4ff\	.	.
2E-\	-le-	.	4B-\)	.	.	2g/	-le-	.	4ee-\	.	.
.	.	.	4e-\	-ja	.	.	.	.	4dd-\	.	.
=90	=90	=90	=90	=90	=90	=90	=90	=90	=90	=90	=90
1E-	-lu-	.	(2e-\	Al-	.	[1a-	-lu-	.	4cc\	.	.
.	.	.	.	.	.	.	.	.	4ee-\	.	.
.	.	.	4f\)	.	.	.	.	.	4dd-\	.	.
.	.	.	4e-\	-le-	.	.	.	.	4cc\	-le-	.
=91	=91	=91	=91	=91	=91	=91	=91	=91	=91	=91	=91
1E-	-ja	.	2d-\	-lu-	.	2a-/]	.	.	4b-\	-lu-	.
.	.	.	.	.	.	.	.	.	4cc\	.	.
.	.	.	2B-\	.	.	2g/	-ja	.	4dd-\	.	.
.	.	.	.	.	.	.	.	.	4ee-\	-ja	.
!LO:LB:g=original	!	!	!	!	!	!LO:LB:g=original	!	!	!LO:LB:g=original	!	!
=92	=92	=92	=92	=92	=92	=92	=92	=92	=92	=92	=92
!	!	!LO:DY:b	!	!	!	!	!	!	!	!	!
!	!	!	!	!	!	!	!	!	!	!	!LO:DY:b
!	!	!	!	!	!	!	!	!LO:DY:b	!	!	!
(2A-\	Al-	ff	4A-\	-ja	.	2a-/	Al-	ff	2a-/	Al-	ff
.	.	.	4r	.	.	.	.	.	.	.	.
4G\)	.	.	2r	.	.	2a-/	-le-	.	2a-/	-le-	.
4F\	-le-	.	.	.	.	.	.	.	.	.	.
!	!	!	!LO:LB:g=original	!	!	!	!	!	!	!	!
=93	=93	=93	=93	=93	=93	=93	=93	=93	=93	=93	=93
!	!	!	!	!	!LO:DY:b	!	!	!	!	!	!
2E-\	-lu-	.	2e-\	Al-	ff	(4a-/	-lu-	.	2.b-\	-lu-	.
.	.	.	.	.	.	8g/L	.	.	.	.	.
.	.	.	.	.	.	8f/J	.	.	.	.	.
4D-\	.	.	2e-\	-le-	.	4g/)	.	.	.	.	.
4C\	-ja	.	.	.	.	4a-/	-ja	.	4cc\	-ja	.
=94	=94	=94	=94	=94	=94	=94	=94	=94	=94	=94	=94
2BB-/	Al-	.	4f\	-lu-	.	2a-/	Al-	.	(4dd-\	Al-	.
.	.	.	4d-\	.	.	.	.	.	8ee-\L	.	.
.	.	.	.	.	.	.	.	.	8ff\J	.	.
2E-\	-le-	.	4B-\	.	.	2g/	-le-	.	4ee-\)	.	.
.	.	.	4e-\	.	.	.	.	.	4dd-\	-le-	.
=95	=95	=95	=95	=95	=95	=95	=95	=95	=95	=95	=95
2E-\	-lu-	.	1e-	-ja	.	4a-/	-lu-	.	(4cc\	-lu-	.
.	.	.	.	.	.	4g/	.	.	4b-\	.	.
2E-\	-ja	.	.	.	.	4a-/	.	.	4cc\	.	.
.	.	.	.	.	.	4b-/	-ja	.	4dd-\)	.	.
!	!	!	!	!	!	!	!	!	!LO:LB:g=original	!	!
=96	=96	=96	=96	=96	=96	=96	=96	=96	=96	=96	=96
2A-\	Al-	.	2A-\	Al-	.	2a-/	Al-	.	4cc\	-ja	.
.	.	.	.	.	.	.	.	.	4r	.	.
2A-\	-le-	.	2A-\	-le-	.	4g/	.	.	2r	.	.
.	.	.	.	.	.	4f/	.	.	.	.	.
!LO:LB:g=original	!	!	!	!	!	!LO:LB:g=original	!	!	!	!	!
=97	=97	=97	=97	=97	=97	=97	=97	=97	=97	=97	=97
(4A-\	-lu-	.	2.B-\	-lu-	.	2e-/	.	.	2ee-\	Al-	.
8G\L	.	.	.	.	.	.	.	.	.	.	.
8F\J	.	.	.	.	.	.	.	.	.	.	.
4G\)	.	.	.	.	.	4dd-\	.	.	2ee-\	-le-	.
4A-\	-ja	.	4c\	-ja	.	4cc\	-le-	.	.	.	.
!	!	!	!LO:LB:g=original	!	!	!	!	!	!	!	!
=98	=98	=98	=98	=98	=98	=98	=98	=98	=98	=98	=98
2A-\	Al-	.	4d-\	Al-	.	2b-\	-lu-	.	(4ff\	-lu-	.
.	.	.	8e-\L	-le-	.	.	.	.	4dd-\	.	.
.	.	.	8f\J	.	.	.	.	.	.	.	.
2G\	-le-	.	4e-\	-lu-	.	2b-\	-ja	.	4b-\)	.	.
.	.	.	4d-\	-ja	.	.	.	.	4ee-\	-ja	.
=99	=99	=99	=99	=99	=99	=99	=99	=99	=99	=99	=99
2A-\	-lu-	.	2c\	Al-	.	[1a-	Al-	.	2ee-\	Al-	.
2A-\	-ja	.	2f\	.	.	.	.	.	2aa-\	.	.
!	!	!	!	!	!	!	!	!	!LO:LB:g=original	!	!
=100	=100	=100	=100	=100	=100	=100	=100	=100	=100	=100	=100
[1A-	Al-	.	2e-\	.	.	1a-_	.	.	2gg\	.	.
.	.	.	2d-\	.	.	.	.	.	2ff\	.	.
=101	=101	=101	=101	=101	=101	=101	=101	=101	=101	=101	=101
1A-_	.	.	2c\	.	.	1a-]	.	.	2ee-\	.	.
.	.	.	2f\	.	.	.	.	.	2dd-\	.	.
=102	=102	=102	=102	=102	=102	=102	=102	=102	=102	=102	=102
1A-]	.	.	2e-\	.	.	1a-	-le-	.	2cc\	.	.
.	.	.	2d-\	-le-	.	.	.	.	2ff\	.	.
!LO:LB:g=original	!	!	!LO:LB:g=original	!	!	!	!	!	!	!	!
=103	=103	=103	=103	=103	=103	=103	=103	=103	=103	=103	=103
2E-\	.	.	2.c\	-lu-	.	1a-	-lu-	.	2.ee-\	.	.
2E-\	-le-	.	.	.	.	.	.	.	.	.	.
.	.	.	4A-\	.	.	.	.	.	4cc\	-le-	.
!	!	!	!	!	!	!LO:LB:g=original	!	!	!	!	!
=104	=104	=104	=104	=104	=104	=104	=104	=104	=104	=104	=104
2E-\	-lu-	.	1B-	-ja	.	1g	-ja	.	4ee-\	-lu-	.
.	.	.	.	.	.	.	.	.	4ddn\	.	.
2E-\	-ja	.	.	.	.	.	.	.	4dd-X\	.	.
.	.	.	.	.	.	.	.	.	4b-\	-ja	.
!	!	!	!	!	!	!	!	!	!LO:LB:g=original	!	!
=105	=105	=105	=105	=105	=105	=105	=105	=105	=105	=105	=105
1A-	Al-	.	(4A-\	Al-	.	[1a-	Al-	.	1a-	Al-	.
.	.	.	4B-\	.	.	.	.	.	.	.	.
.	.	.	4c\)	.	.	.	.	.	.	.	.
.	.	.	4d-\	-le-	.	.	.	.	.	.	.
=106	=106	=106	=106	=106	=106	=106	=106	=106	=106	=106	=106
1E-	-le-	.	2e-\	-lu-	.	2a-/]	.	.	4b-\	.	.
.	.	.	.	.	.	.	.	.	8cc\L	.	.
.	.	.	.	.	.	.	.	.	8dd-\J	.	.
.	.	.	2e-\	-ja	.	2g/	-le-	.	4cc\	.	.
.	.	.	.	.	.	.	.	.	4b-\	-le-	.
=107	=107	=107	=107	=107	=107	=107	=107	=107	=107	=107	=107
1A-	-lu-	.	2c\	Al-	.	4a-/	-lu-	.	1a-	-lu-	.
.	.	.	.	.	.	4e-/	.	.	.	.	.
.	.	.	4d-\	.	.	4f/	.	.	.	.	.
.	.	.	4c\	-le-	.	4e-/	.	.	.	.	.
!LO:LB:g=original	!	!	!LO:LB:g=original	!	!	!	!	!	!	!	!
=108	=108	=108	=108	=108	=108	=108	=108	=108	=108	=108	=108
1E-	-ja	.	2B-\	-lu-	.	1d-	-ja	.	4a-/	.	.
.	.	.	.	.	.	.	.	.	8g/L	.	.
.	.	.	.	.	.	.	.	.	8f/J	.	.
.	.	.	2B-\	-ja	.	.	.	.	4g/	.	.
.	.	.	.	.	.	.	.	.	4ee-\	-ja	.
!	!	!	!	!	!	!	!	!	!LO:LB:g=original	!	!
=109	=109	=109	=109	=109	=109	=109	=109	=109	=109	=109	=109
[1AA-	Al-	.	2A-\	Al-	.	[1c	Al-	.	[1a-	Al-	.
.	.	.	(2f\	.	.	.	.	.	.	.	.
!	!	!	!	!	!	!LO:LB:g=original	!	!	!	!	!
=110	=110	=110	=110	=110	=110	=110	=110	=110	=110	=110	=110
1AA-_	.	.	2e-\)	.	.	1c_	.	.	1a-_	.	.
!	!	!	!LO:TX:t=P:problem:c1 lub d1, podpisane literą c	!	!	!	!	!	!	!	!
.	.	.	2c\	-le-	.	.	.	.	.	.	.
=111	=111	=111	=111	=111	=111	=111	=111	=111	=111	=111	=111
2AA-/]	.	.	[1A-	-lu-	.	1c_	.	.	1a-_	.	.
2F\	.	.	.	.	.	.	.	.	.	.	.
=112	=112	=112	=112	=112	=112	=112	=112	=112	=112	=112	=112
2E-\	.	.	1A-_	.	.	1c]	.	.	1a-]	.	.
2C/	-le-	.	.	.	.	.	.	.	.	.	.
!LO:LB:g=original	!	!	!	!	!	!	!	!	!	!	!
=113	=113	=113	=113	=113	=113	=113	=113	=113	=113	=113	=113
1AA-	-lu-	.	1A-_	.	.	1c	-le-	.	1a-	-le-	.
!	!	!	!LO:LB:g=original	!	!	!	!	!	!	!	!
=114	=114	=114	=114	=114	=114	=114	=114	=114	=114	=114	=114
1D-	.	.	1A-]	.	.	1d-	-lu-	.	1f	-lu-	.
=115	=115	=115	=115	=115	=115	=115	=115	=115	=115	=115	=115
1AA-	-ja	.	1A-	-ja	.	1c	-ja	.	1e-	-ja	.
==	==	==	==	==	==	==	==	==	==	==	==
*-	*-	*-	*-	*-	*-	*-	*-	*-	*-	*-	*-
!!!system-decoration: [(s1,s2,s3,s4)]
!!!RDF**kern: > = above
!!!RDF**kern: < = below
!!!AIN: 1 alto 1 empty 1 soprn 1 tenor
!!!ENC: Mateusz Solarz
!!!END: 2021-05-04
